foxy cash/img/price.svg

<?xml version="1.0"?>
<svg xmlns="http://www.w3.org/2000/svg" height="512px" viewBox="-96 0 496 496" width="512px"><path d="m152 336c-8.824219 0-16-7.175781-16-16h-16c0 14.871094 10.230469 27.289062 24 30.863281v17.136719h16v-17.136719c13.769531-3.574219 24-15.992187 24-30.863281 0-17.648438-14.351562-32-32-32-8.824219 0-16-7.175781-16-16s7.175781-16 16-16 16 7.175781 16 16h16c0-14.871094-10.230469-27.289062-24-30.863281v-17.136719h-16v17.136719c-13.769531 3.574219-24 15.992187-24 30.863281 0 17.648438 14.351562 32 32 32 8.824219 0 16 7.175781 16 16s-7.175781 16-16 16zm0 0" fill="#f67235"/><path d="m152 400c57.34375 0 104-46.65625 104-104s-46.65625-104-104-104-104 46.65625-104 104 46.65625 104 104 104zm0-192c48.519531 0 88 39.480469 88 88s-39.480469 88-88 88-88-39.480469-88-88 39.480469-88 88-88zm0 0" fill="#f67235"/><path d="m243.632812 80h-39.898437c2.777344-6.734375 4.265625-13.96875 4.265625-21.296875v-2.703125c0-30.871094-25.128906-56-56-56s-56 25.128906-56 56v2.703125c0 7.335937 1.488281 14.5625 4.265625 21.296875h-39.898437l-60.367188 68.992188v323.007812c0 13.230469 10.769531 24 24 24h256c13.230469 0 24-10.769531 24-24v-323.007812zm-125.929687-.71875c-3.734375-6.21875-5.703125-13.335938-5.703125-20.578125v-2.703125c0-22.054688 17.945312-40 40-40s40 17.945312 40 40v2.703125c0 7.242187-1.96875 14.359375-5.703125 20.578125l-.433594.71875h-67.734375zm162.296875 400.71875h-256c-4.414062 0-8-3.585938-8-8v-312h88v-16h-78.367188l42-48h108.632813l-11.289063 18.808594c-3.96875-1.777344-8.34375-2.808594-12.976562-2.808594-17.648438 0-32 14.351562-32 32s14.351562 32 32 32 32-14.351562 32-32c0-7.167969-2.449219-13.71875-6.441406-19.054688l17.371094-28.945312h41.4375l42 48h-78.367188v16h88v312c0 4.414062-3.585938 8-8 8zm-112-336c0 8.824219-7.175781 16-16 16s-16-7.175781-16-16 7.175781-16 16-16c1.617188 0 3.144531.3125 4.609375.761719l-6.671875 11.125 13.71875 8.234375 4.070312-6.792969c.152344.871094.273438 1.761719.273438 2.671875zm0 0" fill="#f67235"/><path d="m32 448h208v16h-208zm0 0" fill="#f67235"/><path d="m256 448h16v16h-16zm0 0" fill="#f67235"/><path d="m32 416h240v16h-240zm0 0" fill="#f67235"/></svg>

<svg xmlns="http://www.w3.org/2000/svg" height="512" viewBox="-96 0 496 496" width="512"><path d="M152 336c-8.824 0-16-7.176-16-16h-16c0 14.871 10.23 27.29 24 30.863V368h16v-17.137c13.77-3.574 24-15.992 24-30.863 0-17.648-14.352-32-32-32-8.824 0-16-7.176-16-16s7.176-16 16-16 16 7.176 16 16h16c0-14.871-10.23-27.29-24-30.863V224h-16v17.137c-13.77 3.574-24 15.992-24 30.863 0 17.648 14.352 32 32 32 8.824 0 16 7.176 16 16s-7.176 16-16 16zm0 0" fill="#f67235"/><path d="M152 400c57.344 0 104-46.656 104-104s-46.656-104-104-104S48 238.656 48 296s46.656 104 104 104zm0-192c48.52 0 88 39.48 88 88s-39.48 88-88 88-88-39.48-88-88 39.48-88 88-88zm0 0" fill="#f67235"/><path d="M243.633 80h-39.899C206.512 73.266 208 66.031 208 58.703V56c0-30.871-25.129-56-56-56S96 25.129 96 56v2.703c0 7.336 1.488 14.563 4.266 21.297H60.367L0 148.992V472c0 13.23 10.77 24 24 24h256c13.23 0 24-10.77 24-24V148.992zm-125.93-.719A39.98 39.98 0 0 1 112 58.703V56c0-22.055 17.945-40 40-40s40 17.945 40 40v2.703a39.98 39.98 0 0 1-5.703 20.578l-.434.719H118.13zM280 480H24c-4.414 0-8-3.586-8-8V160h88v-16H25.633l42-48h108.633l-11.29 18.809C161.009 113.03 156.634 112 152 112c-17.648 0-32 14.352-32 32s14.352 32 32 32 32-14.352 32-32c0-7.168-2.45-13.719-6.441-19.055L194.929 96h41.438l42 48H200v16h88v312c0 4.414-3.586 8-8 8zM168 144c0 8.824-7.176 16-16 16s-16-7.176-16-16 7.176-16 16-16c1.617 0 3.145.313 4.61.762l-6.673 11.125 13.72 8.234 4.07-6.793c.152.871.273 1.762.273 2.672zm0 0" fill="#f67235"/><path d="M32 448h208v16H32zm0 0M256 448h16v16h-16zm0 0M32 416h240v16H32zm0 0" fill="#f67235"/></svg>
